img/brand_visual_person4_bubble.svg

<svg width="53" height="51" viewBox="0 0 53 51" fill="none" xmlns="http://www.w3.org/2000/svg">
<path d="M50.1361 10.8865C47.6996 6.91588 43.8793 3.98826 39.412 2.66835C31.7216 -0.000202263 25.4333 -0.850061 17.505 0.977135C9.57669 2.80433 1.69934 8.49838 0.331214 16.5465C-0.484563 21.4247 -0.000195297 27.1953 4.38461 32.0055C13.1967 41.6599 20.0288 38.8043 22.7481 40.3086C26.861 42.5352 27.8977 48.2803 31.7046 50.9998C32.3844 49.1216 32.0105 46.9885 32.6734 45.1018C33.8715 41.7023 37.8484 40.3341 41.0011 38.5579C50.1871 33.3737 57.1382 21.8837 50.1361 10.8865Z" fill="#FFE87B"/>
<path d="M12.4405 22.1813C12.1909 17.6485 12.279 13.1033 12.704 8.58356L10.5286 9.51841C14.0846 12.6334 16.975 16.4346 19.0262 20.694C19.1105 20.8397 19.2226 20.9673 19.3562 21.0696C19.4897 21.1719 19.6421 21.2469 19.8047 21.2903C19.9672 21.3337 20.1368 21.3447 20.3035 21.3226C20.4703 21.3005 20.6311 21.2457 20.7767 21.1615C20.9224 21.0772 21.05 20.9651 21.1523 20.8315C21.2546 20.6979 21.3296 20.5455 21.373 20.3829C21.4164 20.2204 21.4273 20.0508 21.4052 19.884C21.3831 19.7172 21.3284 19.5564 21.2441 19.4108C19.0876 14.9562 16.0593 10.9797 12.3386 7.71671C12.1553 7.56023 11.9322 7.45775 11.6941 7.42072C11.456 7.38369 11.2123 7.41356 10.9902 7.50699C10.7681 7.60043 10.5763 7.75375 10.4363 7.94986C10.2962 8.14596 10.2135 8.37713 10.1971 8.61756C9.77216 13.1373 9.6841 17.6825 9.93372 22.2153C10.0187 23.847 12.568 23.8555 12.483 22.2153L12.4405 22.1813Z" fill="#28C99B"/>
<path d="M12.1431 17.5666L17.6581 16.7167C17.9763 16.6165 18.243 16.3964 18.4017 16.1029C18.5603 15.8094 18.5984 15.4656 18.5079 15.1445C18.399 14.8323 18.1774 14.572 17.8866 14.4148C17.5957 14.2576 17.2566 14.2147 16.9358 14.2946L11.4293 15.1445C11.2673 15.1887 11.1156 15.2645 10.9829 15.3676C10.8502 15.4707 10.7393 15.5989 10.6563 15.7451C10.5734 15.8912 10.5202 16.0522 10.4997 16.219C10.4793 16.3857 10.492 16.5549 10.5371 16.7167C10.6425 17.0294 10.8622 17.2908 11.1522 17.4484C11.4421 17.6059 11.7809 17.6482 12.1006 17.5666H12.1431Z" fill="#28C99B"/>
<path d="M30.1752 10.4957C30.1922 10.8128 30.1922 11.1305 30.1752 11.4476C30.1752 11.626 30.1752 11.796 30.1752 11.9745C30.1711 12.0254 30.1711 12.0766 30.1752 12.1275C30.1752 12.3569 30.1752 12.051 30.1752 12.034C30.1369 12.1608 30.1169 12.2924 30.1158 12.4249C30.0292 12.9072 29.9041 13.3818 29.7419 13.8442C29.6909 13.9717 29.6399 14.0991 29.5974 14.2266C29.6824 13.9887 29.5974 14.2776 29.5294 14.3626C29.4 14.6548 29.2524 14.9387 29.0875 15.2125C28.9431 15.4419 28.7901 15.6629 28.6287 15.8838C28.7561 15.7139 28.6287 15.8838 28.6287 15.8838C28.5795 15.95 28.5255 16.0125 28.4672 16.0708C28.3486 16.2149 28.2209 16.3511 28.0848 16.4787L27.7874 16.7592C27.6005 16.9377 27.8384 16.7082 27.8384 16.7167C27.8384 16.7252 27.6939 16.8187 27.7024 16.8102C27.7109 16.8017 27.388 16.9292 27.5665 16.8867C27.7449 16.8442 27.4135 16.9377 27.354 16.9547C27.3012 16.9722 27.2472 16.9864 27.1926 16.9972C27.1926 16.9972 27.5325 16.9972 27.303 16.9972H26.8527C26.6997 16.9972 27.0226 16.9972 27.0056 16.9972C26.9886 16.9972 26.7337 16.9292 26.6742 16.9122L26.5382 16.8697C26.3853 16.8697 26.7677 16.9972 26.6317 16.9122C26.4958 16.8272 26.4788 16.8357 26.4023 16.7847L26.2833 16.7082C26.1049 16.6147 26.3938 16.7592 26.3598 16.7762C26.3258 16.7932 26.1728 16.6062 26.1389 16.5722L26.0369 16.4617C25.8754 16.2918 26.1049 16.5382 26.0964 16.5382C26.0879 16.5382 25.9519 16.3173 25.9349 16.2833C25.9162 16.2502 25.8992 16.2161 25.8839 16.1813C25.7819 16.0538 25.9604 16.4277 25.8839 16.2748C25.8074 16.1218 25.8159 16.0453 25.7819 15.9348C25.748 15.8243 25.7819 16.1983 25.7819 15.9348C25.7735 15.8217 25.7735 15.708 25.7819 15.5949C25.7819 15.3059 25.7225 15.7564 25.7819 15.5354C25.8294 15.4018 25.8691 15.2656 25.9009 15.1275C25.9009 14.949 25.8074 15.3059 25.9009 15.1275L25.9944 14.9405C26.0539 14.8215 26.1219 14.711 26.1898 14.6006L26.3258 14.4051C26.3258 14.4051 26.1898 14.5666 26.3258 14.3626C26.4618 14.1586 26.5127 14.1501 26.6147 14.0566C26.7167 13.9632 26.8017 13.8782 26.8951 13.7932C26.6912 13.9802 26.9376 13.7932 27.0226 13.7167C27.2342 13.5812 27.4558 13.4618 27.6854 13.3598C27.456 13.4702 27.6854 13.3598 27.7704 13.3598L28.1358 13.2493C28.3737 13.1813 28.6202 13.1473 28.8666 13.0878C29.113 13.0283 28.6202 13.0878 28.8071 13.0878H28.9431H29.3085C29.5491 13.075 29.7902 13.075 30.0308 13.0878C30.2432 13.0878 30.4557 13.0878 30.6766 13.0878H30.8381C31.008 13.0878 30.5746 13.0368 30.7361 13.0878L31.0845 13.1473C31.4128 13.2102 31.7365 13.2954 32.0532 13.4023H32.1297C32.3252 13.4702 31.8408 13.2493 32.0022 13.3513L32.1467 13.4277L32.3507 13.5552C32.3507 13.5552 32.6226 13.7507 32.4951 13.6487C32.3676 13.5467 32.5461 13.6997 32.5716 13.7252C32.64 13.778 32.7027 13.8378 32.7585 13.9037C32.8081 13.9476 32.8536 13.996 32.8945 14.0481C33.0475 14.2181 32.8945 13.9377 32.8945 14.0481C32.957 14.1746 33.028 14.2967 33.1069 14.4136C33.1069 14.4136 33.1834 14.5836 33.1069 14.4136C33.0305 14.2436 33.1069 14.4731 33.1069 14.5156C33.129 14.5706 33.146 14.6275 33.1579 14.6855V14.7705C33.1579 14.881 33.1579 14.881 33.1579 14.7705C33.1579 14.66 33.1579 14.6515 33.1579 14.813C33.1622 14.8838 33.1622 14.9547 33.1579 15.0255C33.1713 15.1412 33.1713 15.2582 33.1579 15.3739C33.1579 15.3739 33.2174 15.085 33.1579 15.2889C33.145 15.3607 33.1279 15.4316 33.1069 15.5014L33.056 15.6629C33.005 15.8498 33.056 15.7649 33.056 15.6629C33.056 15.8838 32.7755 16.1898 32.6481 16.3598C32.8095 16.1303 32.6481 16.3598 32.5546 16.4532C32.4476 16.5647 32.3341 16.6697 32.2147 16.7677C32.0952 16.8862 32.0004 17.0272 31.9357 17.1825C31.871 17.3379 31.8376 17.5045 31.8376 17.6728C31.8376 17.8411 31.871 18.0077 31.9357 18.163C32.0004 18.3184 32.0952 18.4594 32.2147 18.5779C32.4588 18.8067 32.7809 18.9341 33.1154 18.9341C33.45 18.9341 33.7721 18.8067 34.0162 18.5779C34.5353 18.144 34.9555 17.604 35.2486 16.9942C35.5418 16.3844 35.701 15.7189 35.7157 15.0425C35.6982 14.315 35.5013 13.6032 35.1425 12.9701C34.7838 12.3371 34.2743 11.8024 33.6593 11.4136C32.7931 10.9042 31.8162 10.6126 30.8126 10.5637C29.6341 10.4128 28.4373 10.5024 27.2945 10.8272C25.8895 11.236 24.6813 12.1423 23.8955 13.3768C23.4854 13.9678 23.2354 14.655 23.1699 15.3714C23.1044 16.0878 23.2255 16.8089 23.5216 17.4646C23.8034 17.9921 24.2058 18.4457 24.6961 18.7883C25.1863 19.1309 25.7505 19.3529 26.3428 19.4362C27.0199 19.5516 27.7154 19.4884 28.3606 19.2529C29.0058 19.0174 29.5786 18.6178 30.0223 18.0935C30.9685 17.0787 31.6977 15.8814 32.1653 14.575C32.6329 13.2686 32.8289 11.8805 32.7415 10.4957C32.7415 10.1576 32.6073 9.83339 32.3682 9.59432C32.1292 9.35525 31.805 9.22095 31.4669 9.22095C31.1288 9.22095 30.8046 9.35525 30.5656 9.59432C30.3265 9.83339 30.1922 10.1576 30.1922 10.4957H30.1752Z" fill="#28C99B"/>
<path d="M26.0878 5.67701C25.9827 8.01973 26.1251 10.367 26.5127 12.6798C26.8154 14.9961 27.4567 17.2554 28.4162 19.3852C28.4865 19.5531 28.5919 19.7041 28.7254 19.8278C28.8589 19.9516 29.0174 20.0453 29.1901 20.1026C29.3629 20.16 29.5459 20.1797 29.7269 20.1605C29.9079 20.1412 30.0827 20.0833 30.2395 19.9908C30.3963 19.8984 30.5314 19.7734 30.6359 19.6243C30.7403 19.4752 30.8116 19.3054 30.845 19.1265C30.8783 18.9475 30.873 18.7635 30.8293 18.5867C30.7856 18.41 30.7045 18.2447 30.5916 18.1019C29.7492 16.1586 29.1939 14.1031 28.943 12C28.6119 9.90969 28.5008 7.79045 28.6116 5.67701C28.7051 4.03678 26.1558 4.03678 26.0623 5.67701H26.0878Z" fill="#28C99B"/>
<path d="M23.2071 9.65435L31.7813 8.88948C32.1104 8.87941 32.4238 8.74644 32.6597 8.51678C32.8956 8.28712 33.037 7.97741 33.056 7.64869C33.056 7.31059 32.9217 6.98635 32.6826 6.74728C32.4436 6.50821 32.1194 6.3739 31.7813 6.3739L23.2071 7.13877C22.8718 7.14738 22.5526 7.28445 22.3154 7.52168C22.0782 7.75891 21.9411 8.07818 21.9325 8.41356C21.9369 8.75029 22.0726 9.07198 22.3107 9.3101C22.5488 9.54823 22.8705 9.68395 23.2071 9.68835V9.65435Z" fill="#28C99B"/>
<path d="M23.1901 22.1558C22.8153 22.874 22.6713 23.6904 22.7778 24.4935C22.8842 25.2967 23.236 26.0473 23.785 26.6431C24.025 26.8797 24.3486 27.0124 24.6857 27.0124C25.0228 27.0124 25.3464 26.8797 25.5865 26.6431C25.8191 26.4009 25.9491 26.0781 25.9491 25.7422C25.9491 25.4064 25.8191 25.0836 25.5865 24.8414L25.493 24.6459L25.6884 24.9009C25.5598 24.7299 25.4514 24.5445 25.3655 24.3485L25.493 24.6544C25.401 24.4311 25.3382 24.1969 25.306 23.9575L25.3485 24.2975C25.3143 24.0579 25.3143 23.8147 25.3485 23.5751L25.306 23.9065C25.337 23.6963 25.3941 23.4907 25.476 23.2946L25.3485 23.6006C25.3733 23.5339 25.4016 23.4687 25.4335 23.4051C25.5662 23.1081 25.5874 22.7731 25.493 22.4618C25.4004 22.1423 25.1911 21.8693 24.9067 21.6969C24.7589 21.6116 24.5957 21.5564 24.4265 21.5345C24.2574 21.5127 24.0855 21.5245 23.9209 21.5694C23.6011 21.6612 23.3278 21.8707 23.1561 22.1558H23.1901Z" fill="#28C99B"/>
<path d="M18.9072 27.4164L29.5208 26.7196C29.8589 26.7196 30.1831 26.5852 30.4221 26.3462C30.6612 26.1071 30.7955 25.7829 30.7955 25.4448C30.7955 25.1067 30.6612 24.7824 30.4221 24.5434C30.1831 24.3043 29.8589 24.17 29.5208 24.17L18.9072 24.8669C18.5712 24.8734 18.2508 25.0098 18.0131 25.2475C17.7755 25.4851 17.6391 25.8056 17.6326 26.1417C17.6348 26.4791 17.7698 26.802 18.0084 27.0406C18.2469 27.2792 18.5698 27.4142 18.9072 27.4164Z" fill="#28C99B"/>
<path d="M20.3943 26.4306C20.9748 28.5819 22.0727 30.5585 23.5924 32.188C25.1121 33.8175 27.0074 35.0503 29.1129 35.779C29.434 35.8695 29.7777 35.8314 30.0712 35.6728C30.3647 35.5141 30.5848 35.2474 30.685 34.9292C30.7666 34.6094 30.7244 34.2706 30.5668 33.9806C30.4092 33.6906 30.1479 33.4709 29.8352 33.3654L29.1384 33.102L28.9855 33.034L28.6541 32.864C28.2483 32.659 27.854 32.432 27.4729 32.1841C26.7153 31.6911 26.0266 31.0995 25.4249 30.4249C25.272 30.2549 25.119 30.085 24.9746 29.9065L24.8386 29.745C24.7621 29.643 24.6856 29.5496 24.6177 29.4476C24.339 29.0608 24.0836 28.6579 23.8529 28.2408C23.4007 27.4591 23.0685 26.614 22.8671 25.7337C22.7781 25.4069 22.5629 25.1288 22.2689 24.9606C21.9749 24.7925 21.6261 24.7481 21.2993 24.8371C20.9725 24.9261 20.6945 25.1413 20.5264 25.4354C20.3582 25.7294 20.3138 26.0782 20.4028 26.4051L20.3943 26.4306Z" fill="#28C99B"/>
<path d="M19.2217 36.2209C21.4662 35.6336 23.4799 34.3794 24.997 32.6239C26.5141 30.8684 27.4633 28.6942 27.7194 26.3881C27.7194 26.05 27.5851 25.7257 27.3461 25.4867C27.107 25.2476 26.7828 25.1133 26.4448 25.1133C26.1094 25.1219 25.7902 25.259 25.553 25.4962C25.3158 25.7334 25.1787 26.0527 25.1701 26.3881C25.1701 26.694 25.1701 26.2606 25.1701 26.5325C25.1701 26.66 25.1276 26.779 25.1021 26.898C25.0576 27.1387 25.0009 27.3769 24.9322 27.6119C24.8642 27.8498 24.7877 28.0793 24.7027 28.3088C24.6711 28.407 24.6342 28.5034 24.5923 28.5977C24.5923 28.6827 24.5923 28.6742 24.5923 28.5977L24.5158 28.7677C24.3144 29.1946 24.0874 29.6089 23.836 30.0085C23.7 30.2124 23.5556 30.4164 23.4111 30.6119C23.5471 30.4249 23.3091 30.7308 23.3091 30.7393L23.0712 31.0198C21.9049 32.3931 20.3346 33.3627 18.5844 33.7903C18.4188 33.831 18.2629 33.9044 18.1262 34.0064C17.9894 34.1083 17.8745 34.2367 17.7883 34.3838C17.702 34.531 17.6462 34.694 17.624 34.8631C17.6019 35.0323 17.614 35.2041 17.6595 35.3686C17.705 35.533 17.783 35.6866 17.889 35.8202C17.9949 35.9539 18.1266 36.065 18.2762 36.1469C18.4259 36.2287 18.5904 36.2797 18.7601 36.2968C18.9299 36.3139 19.1013 36.2968 19.2642 36.2464L19.2217 36.2209Z" fill="#28C99B"/>
<path d="M41.2137 16.7507C41.8043 16.7814 42.3685 17.005 42.8198 17.3873C43.271 17.7695 43.5845 18.2893 43.712 18.8668C43.7857 19.3795 43.6784 19.9019 43.4085 20.344C43.1386 20.7861 42.7231 21.1202 42.2334 21.2889C41.4431 21.5269 40.6019 21.5014 39.8031 21.7053C38.9867 21.897 38.2467 22.3292 37.6787 22.9461C36.72 24.1663 36.1514 25.6472 36.0471 27.1954C35.9634 27.5153 36.0047 27.855 36.1626 28.1455C36.3204 28.436 36.583 28.6554 36.8969 28.7592C37.2236 28.848 37.5722 28.804 37.8667 28.6368C38.1612 28.4697 38.3776 28.1929 38.4689 27.8668C38.6474 26.6175 38.8343 24.7393 40.1685 24.2379C41.0947 23.898 42.1314 24.0085 43.0662 23.694C43.955 23.4031 44.7324 22.8452 45.2926 22.0963C45.84 21.3749 46.1726 20.5137 46.2523 19.6116C46.332 18.7095 46.1554 17.8033 45.743 16.9971C45.2967 16.1751 44.6447 15.4829 43.8508 14.9883C43.0569 14.4938 42.1482 14.2137 41.2137 14.1756C40.8763 14.1778 40.5534 14.3128 40.3148 14.5514C40.0763 14.79 39.9413 15.113 39.939 15.4504C39.9456 15.7864 40.082 16.1069 40.3196 16.3446C40.5572 16.5822 40.8777 16.7186 41.2137 16.7252V16.7507Z" fill="#28C99B"/>
<path d="M35.3248 30.7054L35.2143 30.8583C35.1233 31.0012 35.0706 31.1651 35.0614 31.3343C35.0189 31.5016 35.0189 31.6769 35.0614 31.8442C35.0994 32.0059 35.1784 32.1552 35.2908 32.2776C35.3839 32.4131 35.5057 32.5263 35.6477 32.609L35.9536 32.7365C36.1763 32.796 36.4107 32.796 36.6334 32.7365L36.9394 32.609C37.1238 32.494 37.2782 32.3367 37.3897 32.1501L37.5002 31.9972C37.5912 31.8543 37.6439 31.6904 37.6532 31.5212C37.6956 31.3539 37.6956 31.1786 37.6532 31.0113C37.5498 30.6974 37.3431 30.4278 37.0668 30.2464L36.7609 30.119C36.5382 30.0595 36.3038 30.0595 36.0811 30.119L35.7837 30.2464C35.5948 30.3587 35.4371 30.5165 35.3248 30.7054Z" fill="#28C99B"/>
</svg>

<svg xmlns="http://www.w3.org/2000/svg" width="53" height="51" fill="none" xmlns:v="https://vecta.io/nano"><path d="M50.136 10.887a18.85 18.85 0 0 0-10.724-8.218C31.722 0 25.433-.85 17.505.977S1.699 8.498.331 16.547C-.485 21.425 0 27.195 4.385 32.005c8.812 9.654 15.644 6.799 18.363 8.303 4.113 2.227 5.15 7.972 8.956 10.691.68-1.878.306-4.011.969-5.898 1.198-3.399 5.175-4.768 8.328-6.544 9.186-5.184 16.137-16.674 9.135-27.671z" fill="#ffe87b"/><g fill="#28c99b"><path d="M12.441 22.181c-.25-4.533-.162-9.078.264-13.598l-2.175.935c3.556 3.115 6.446 6.916 8.498 11.176a1.28 1.28 0 0 0 .779.596 1.28 1.28 0 0 0 .972-.129 1.28 1.28 0 0 0 .596-.779 1.28 1.28 0 0 0-.129-.972c-2.157-4.455-5.185-8.431-8.905-11.694a1.3 1.3 0 0 0-1.348-.21 1.3 1.3 0 0 0-.793 1.111 91.51 91.51 0 0 0-.263 13.598c.085 1.632 2.634 1.64 2.549 0l-.043-.034z"/><path d="M12.143 17.567l5.515-.85c.318-.1.585-.32.744-.614a1.28 1.28 0 0 0 .106-.958 1.33 1.33 0 0 0-.621-.73c-.29-.157-.63-.2-.951-.12l-5.507.85c-.162.044-.314.12-.446.223s-.244.231-.327.378a1.29 1.29 0 0 0-.157.474 1.27 1.27 0 0 0 .037.498 1.31 1.31 0 0 0 1.563.85h.043zm18.032-7.071a8.89 8.89 0 0 1 0 .952v.527c-.004.051-.004.102 0 .153 0 .229 0-.076 0-.093a1.39 1.39 0 0 0-.059.391 9.2 9.2 0 0 1-.374 1.419l-.145.382c.085-.238 0 .051-.068.136a7.61 7.61 0 0 1-.442.85l-.459.671c.127-.17 0 0 0 0a1.69 1.69 0 0 1-.162.187c-.119.144-.246.28-.382.408l-.297.281c-.187.178.051-.051.051-.043s-.145.102-.136.093-.314.119-.136.077-.153.051-.213.068a1.34 1.34 0 0 1-.161.043h.11-.45c-.153 0 .17 0 .153 0a6.54 6.54 0 0 1-.331-.085l-.136-.042c-.153 0 .23.127.093.042l-.229-.127-.119-.076c-.178-.094.11.051.076.068s-.187-.17-.221-.204l-.102-.11c-.162-.17.068.076.059.076a2.74 2.74 0 0 1-.162-.255 1.14 1.14 0 0 1-.051-.102c-.102-.128.076.246 0 .093s-.068-.229-.102-.34 0 .264 0 0a2.41 2.41 0 0 1 0-.34c0-.289-.059.161 0-.06a3.69 3.69 0 0 0 .119-.408c0-.178-.093.178 0 0l.093-.187c.059-.119.128-.229.195-.34l.136-.196s-.136.162 0-.042.187-.213.289-.306l.28-.263c-.204.187.043 0 .128-.077.212-.135.433-.255.663-.357-.229.11 0 0 .085 0l.365-.111c.238-.068.484-.102.731-.162s-.246 0-.059 0h.136.365a6.8 6.8 0 0 1 .722 0h.646.162c.17 0-.264-.051-.102 0l.348.059a7.36 7.36 0 0 1 .969.255h.077c.196.068-.289-.153-.127-.051l.145.076.204.127.144.094c-.127-.102.051.051.076.076a1.23 1.23 0 0 1 .187.179 1.1 1.1 0 0 1 .136.144c.153.17 0-.11 0 0a3.14 3.14 0 0 0 .212.366s.076.17 0 0 0 .059 0 .102a.99.99 0 0 1 .051.17v.085c0 .111 0 .111 0 0s0-.119 0 .043a1.75 1.75 0 0 1 0 .212c.013.116.013.233 0 .348 0 0 .059-.289 0-.085a1.91 1.91 0 0 1-.051.213l-.051.162c-.051.187 0 .102 0 0 0 .221-.28.527-.408.697.161-.23 0 0-.093.093-.107.111-.221.216-.34.315a1.26 1.26 0 0 0-.279.415 1.27 1.27 0 0 0 0 .98 1.28 1.28 0 0 0 .279.415c.244.229.566.356.901.356s.657-.127.901-.356a4.74 4.74 0 0 0 1.7-3.535 4.42 4.42 0 0 0-2.056-3.629 6.21 6.21 0 0 0-2.847-.85 8.8 8.8 0 0 0-3.518.263c-1.405.409-2.613 1.315-3.399 2.55a4.17 4.17 0 0 0-.726 1.995c-.066.717.056 1.438.352 2.093a3.8 3.8 0 0 0 2.821 1.972 3.95 3.95 0 0 0 3.68-1.343 10.2 10.2 0 0 0 2.719-7.598c0-.338-.134-.662-.373-.901s-.563-.373-.901-.373-.662.134-.901.373-.373.563-.373.901h-.017z"/><path d="M26.088 5.677a33.33 33.33 0 0 0 .425 7.003 23.85 23.85 0 0 0 1.904 6.705c.07.168.176.319.309.443s.292.218.465.275.356.077.537.058.356-.077.513-.17.292-.217.396-.366.176-.319.209-.498.028-.363-.016-.54-.125-.342-.238-.485A21.85 21.85 0 0 1 28.943 12a30.28 30.28 0 0 1-.331-6.323c.094-1.64-2.456-1.64-2.549 0h.026z"/><path d="M23.207 9.654l8.574-.765c.329-.01.642-.143.878-.373a1.32 1.32 0 0 0 .396-.868c0-.338-.134-.662-.373-.901s-.563-.373-.901-.373l-8.574.765a1.31 1.31 0 0 0-1.275 1.275 1.29 1.29 0 0 0 1.275 1.275v-.034zm-.017 12.502a3.93 3.93 0 0 0-.412 2.338 3.94 3.94 0 0 0 1.007 2.15 1.28 1.28 0 0 0 .901.369c.337 0 .661-.133.901-.369a1.3 1.3 0 0 0 0-1.802l-.094-.195.195.255a2.75 2.75 0 0 1-.323-.552l.127.306c-.092-.223-.155-.457-.187-.697l.043.34a2.57 2.57 0 0 1 0-.722l-.043.331c.031-.21.088-.416.17-.612l-.127.306c.025-.067.053-.132.085-.195a1.35 1.35 0 0 0 .059-.943c-.093-.32-.302-.593-.586-.765a1.3 1.3 0 0 0-.48-.162 1.29 1.29 0 0 0-.506.035 1.32 1.32 0 0 0-.765.586h.034z"/><path d="M18.907 27.416l10.614-.697c.338 0 .662-.134.901-.373s.373-.563.373-.901-.134-.662-.373-.901-.563-.373-.901-.373l-10.614.697a1.3 1.3 0 0 0-1.275 1.275c.002.337.137.66.376.899s.561.374.899.376z"/><path d="M20.394 26.431a13.66 13.66 0 0 0 3.198 5.757c1.52 1.63 3.415 2.862 5.52 3.591.321.09.665.052.958-.106s.514-.425.614-.744a1.31 1.31 0 0 0-.85-1.564l-.697-.263-.153-.068-.331-.17c-.406-.205-.8-.432-1.181-.68-.758-.493-1.446-1.085-2.048-1.759l-.45-.518-.136-.162-.221-.297a12 12 0 0 1-.765-1.207c-.452-.782-.784-1.627-.986-2.507-.089-.327-.304-.605-.598-.773s-.643-.212-.97-.123-.605.304-.773.598-.213.643-.124.97l-.008.025z"/><path d="M19.222 36.221a11.47 11.47 0 0 0 8.497-9.833c0-.338-.134-.662-.373-.901s-.563-.373-.901-.373a1.31 1.31 0 0 0-1.275 1.275c0 .306 0-.128 0 .144 0 .128-.043.247-.068.366a6.99 6.99 0 0 1-.17.714l-.23.697-.11.289c0 .085 0 .076 0 0l-.077.17a11.58 11.58 0 0 1-.68 1.241l-.425.603c.136-.187-.102.119-.102.127l-.238.281a8.55 8.55 0 0 1-4.487 2.771 1.27 1.27 0 0 0-.458.216c-.136.102-.252.23-.338.377s-.142.31-.164.479-.01.341.036.505a1.29 1.29 0 0 0 .229.452 1.28 1.28 0 0 0 .387.327c.149.082.314.133.484.15a1.28 1.28 0 0 0 .504-.05l-.043-.026zm21.992-19.47a2.7 2.7 0 0 1 2.498 2.117c.074.513-.034 1.035-.304 1.477s-.685.776-1.175.945c-.79.238-1.632.212-2.43.416a4.19 4.19 0 0 0-2.124 1.241 7.72 7.72 0 0 0-1.632 4.249 1.3 1.3 0 0 0 .85 1.564c.327.089.675.045.97-.122a1.28 1.28 0 0 0 .602-.77c.178-1.249.365-3.128 1.7-3.629.926-.34 1.963-.229 2.898-.544.889-.291 1.666-.849 2.226-1.598a4.81 4.81 0 0 0 .45-5.099c-.446-.822-1.098-1.514-1.892-2.009a5.4 5.4 0 0 0-2.637-.813 1.28 1.28 0 0 0-.899.376c-.239.239-.373.562-.376.899a1.3 1.3 0 0 0 1.275 1.275v.025zm-5.889 13.954l-.111.153c-.091.143-.144.307-.153.476a1.05 1.05 0 0 0 0 .51.97.97 0 0 0 .229.433 1.11 1.11 0 0 0 .357.331l.306.127a1.33 1.33 0 0 0 .68 0l.306-.127a1.37 1.37 0 0 0 .45-.459l.111-.153c.091-.143.144-.307.153-.476a1.04 1.04 0 0 0 0-.51 1.46 1.46 0 0 0-.586-.765l-.306-.127a1.33 1.33 0 0 0-.68 0l-.297.127a1.31 1.31 0 0 0-.459.459z"/></g></svg>
